X:8437
T:Kautisten Polkka
R:Polka
O:Finland
M:2/4
K:Em
EFGA B2e2 | B2G2 GFGA | G2F2 FEFG \
|1 F2E2 E2B,2 :|2 F2E2 E4 :|*
|:EFGA B2e2 | g2f2 e2^de | f2B2 ^dBdf \
|1 f2e2 e2[B2G2] :|2 e2e2 e2z2 :|*
|:d2G2 BGBd | g2B2 d2ed \
|1 c2A2 F2D2 | G2GF GABc \
:|2 c2A2 FDFA | G2G2 G2z2 :|**
